lib/brands/logos/php.svg

<svg xmlns="http://www.w3.org/2000/svg" fill="none" aria-hidden="true" viewBox="0 0 145 80"><g id="PHP"><path id="Vector" fill="black" d="M34.9545 19.8271C40.9505 19.8775 45.2955 21.6063 47.9894 25.0106C50.6832 28.4149 51.572 33.0648 50.6573 38.9602C50.3021 41.6541 49.5139 44.2961 48.2943 46.8879C47.125 49.4796 45.4997 51.8168 43.4157 53.9008C40.8743 56.5429 38.156 58.2199 35.2594 58.9318C32.3627 59.6437 29.364 59.999 26.2645 59.999H17.1173L14.2206 74.4822H3.625L14.5255 19.8271H34.9545ZM125.324 19.8271C131.32 19.8775 135.665 21.6063 138.359 25.0106C141.053 28.4149 141.942 33.0648 141.027 38.9602C140.672 41.6541 139.884 44.2961 138.664 46.8879C137.495 49.4796 135.87 51.8168 133.785 53.9008C131.244 56.5429 128.526 58.2199 125.629 58.9318C122.732 59.6437 119.734 59.999 116.634 59.999H107.487L104.59 74.4822H93.9948L104.895 19.8271H125.324ZM73.2465 5.2677L70.2737 19.8271H79.7258C84.9093 19.9293 88.771 20.9964 91.3124 23.0287C93.9041 25.0609 94.6664 28.9241 93.5992 34.6153L88.492 59.999H77.8202L82.6987 35.7587C83.2064 33.2173 83.054 31.4137 82.2414 30.3465C81.4287 29.2793 79.6755 28.7457 76.9817 28.7457L68.5204 28.6695L62.2698 59.999H51.7504L62.7271 5.2677H73.2465ZM26.7219 28.5171C26.1121 28.5674 25.5282 28.5933 24.9687 28.5933L23.4287 28.5932L18.8705 51.3853C19.1754 51.4356 19.4803 51.4615 19.7852 51.4615H20.8524C25.731 51.5118 29.7969 51.03 33.0488 50.0132C36.3007 48.946 38.4868 45.2367 39.6043 38.884C40.5191 33.5481 39.6043 30.4731 36.8602 29.6605C34.1663 28.8479 30.7878 28.4667 26.7219 28.5171ZM117.092 28.5171C116.482 28.5674 115.898 28.5933 115.338 28.5933L113.798 28.5932L109.24 51.3853C109.545 51.4356 109.85 51.4615 110.155 51.4615H111.222C116.101 51.5118 120.167 51.03 123.419 50.0132C126.67 48.946 128.857 45.2367 129.974 38.884C130.889 33.5481 129.974 30.4731 127.23 29.6605C124.536 28.8479 121.158 28.4667 117.092 28.5171Z"/></g></svg>

<svg xmlns="http://www.w3.org/2000/svg" fill="none" aria-hidden="true" viewBox="0 0 145 80"><path fill="#000" d="M34.955 19.827c5.995.05 10.34 1.78 13.034 5.184 2.694 3.404 3.583 8.054 2.668 13.95-.355 2.693-1.143 5.335-2.363 7.927-1.169 2.592-2.794 4.929-4.878 7.013-2.542 2.642-5.26 4.319-8.157 5.03A37.555 37.555 0 0 1 26.265 60h-9.148l-2.896 14.483H3.625l10.9-54.655h20.43Zm90.369 0c5.996.05 10.341 1.78 13.035 5.184 2.694 3.404 3.583 8.054 2.668 13.95-.355 2.693-1.143 5.335-2.363 7.927-1.169 2.592-2.794 4.929-4.879 7.013-2.541 2.642-5.259 4.319-8.156 5.03A37.555 37.555 0 0 1 116.634 60h-9.147l-2.897 14.483H93.995l10.9-54.655h20.429ZM73.246 5.267l-2.972 14.56h9.452c5.183.102 9.045 1.17 11.586 3.202 2.592 2.032 3.354 5.895 2.287 11.586L88.492 60H77.82l4.879-24.24c.507-2.542.355-4.345-.458-5.413-.812-1.067-2.566-1.6-5.26-1.6l-8.46-.076L62.27 60H51.75L62.727 5.268h10.52Zm-46.524 23.25c-.61.05-1.194.076-1.753.076h-1.54L18.87 51.385c.304.05.61.077.914.077h1.067c4.879.05 8.945-.432 12.197-1.449 3.252-1.067 5.438-4.776 6.555-11.129.915-5.336 0-8.41-2.744-9.224-2.694-.812-6.072-1.193-10.138-1.143Zm90.37 0c-.61.05-1.194.076-1.754.076h-1.54l-4.558 22.792c.305.05.61.077.915.077h1.067c4.879.05 8.945-.432 12.197-1.449 3.251-1.067 5.438-4.776 6.555-11.129.915-5.336 0-8.41-2.744-9.224-2.694-.812-6.072-1.193-10.138-1.143Z"/></svg>
